assets/icons/file_icons/docker.svg

<?xml version="1.0" encoding="UTF-8"?><svg id="Layer_76" xmlns="http://www.w3.org/2000/svg" xmlns:xlink="http://www.w3.org/1999/xlink" viewBox="0 0 14 14"><defs><style>.cls-1{fill:#0288d1;}.cls-2{fill:none;}.cls-3{fill:#10c7ff;}</style><clipPath id="clippath"><path class="cls-2" d="m-117.5539,11.2769l-4.998,2.499c-.2821.141-.6141.141-.8962,0l-4.998-2.499c-.3395-.1697-.5539-.5167-.5539-.8962v-5.7615c0-.3795.2144-.7265.5539-.8962l4.998-2.499c.2821-.141.6141-.141.8962,0l4.998,2.499c.3395.1697.5539.5167.5539.8962v5.7615c0,.3795-.2144.7265-.5539.8962Z"/></clipPath></defs><path class="cls-3" d="m14,5s-1,0-2.0368.8212c.0368-1.8212-.9632-2.8212-.9632-2.8212,0,0-1,2-.4851,3.7642-.2021.101-.5389.2358-1.0441.2358H0c0,2,.3521,6,5,6,3.3343,0,6-2,6.6937-5.4948,1.7514.1347,2.3063-2.5052,2.3063-2.5052"/><path class="cls-2" d="m8.1449,5h-.1449.1449c-.0773,0-.1449-.0942-.1449-.1885,0,.0942-.0676.1885-.1642.1885.1063,0,.1642.0842.1642.1684,0-.0947.0676-.1684.1449-.1684Z"/><path class="cls-1" d="m4,5.1684v1.6631c0,.0948.0676.1685.1449.1685h1.7102c.0773,0,.1449-.0737.1449-.1685v-1.6716c0-.088-.072-.16-.16-.16h-1.6951c-.0773,0-.1449.0737-.1449.1684Z"/><path class="cls-1" d="m8,4.84v-1.6601c0-.1058-.0676-.1799-.1449-.1799h-1.7102c-.0773,0-.1449.0635-.1449.1799v1.6508c0,.0847.0676.1693.1449.1693h1.6951c.088,0,.16-.072.16-.16Z"/><path class="cls-1" d="m8,6.8315v-1.6631c0-.0842-.0676-.1684-.1546-.1684h-1.7004c-.0773,0-.145.0737-.145.1684v1.6631c0,.0948.0676.1685.145.1685h1.7004c.087,0,.1546-.0737.1546-.1685Z"/><path class="cls-1" d="m3,6.8315v-1.6631c0-.0842-.058-.1684-.1642-.1684h-1.6909c-.0773,0-.1449.0737-.1449.1684v1.6631c0,.0948.058.1685.1449.1685h1.6909c.0966,0,.1642-.0737.1642-.1685Z"/><path class="cls-1" d="m3,4.8115v-1.644c0-.0942-.058-.1675-.1642-.1675h-1.6909c-.0773,0-.1449.0628-.1449.1675v1.644c0,.0942.058.1885.1449.1885h1.6909c.0966,0,.1642-.0942.1642-.1885Z"/></svg>

<svg xmlns="http://www.w3.org/2000/svg" viewBox="0 0 14 14"><path fill="#10c7ff" d="M14 5s-1 0-2.037.821C12 4 11 3 11 3s-1 2-.485 3.764A2.26 2.26 0 0 1 9.47 7H0c0 2 .352 6 5 6 3.334 0 6-2 6.694-5.495C13.445 7.64 14 5 14 5"/><path fill="none" d="M8.145 5H8zC8.068 5 8 4.906 8 4.812 8 4.906 7.932 5 7.836 5c.106 0 .164.084.164.168C8 5.074 8.068 5 8.145 5"/><path fill="#0288d1" d="M4 5.168v1.664c0 .094.068.168.145.168h1.71C5.932 7 6 6.926 6 6.832V5.16A.16.16 0 0 0 5.84 5H4.145C4.068 5 4 5.074 4 5.168m4-.328V3.18C8 3.074 7.932 3 7.855 3h-1.71C6.068 3 6 3.064 6 3.18v1.65c0 .085.068.17.145.17H7.84A.16.16 0 0 0 8 4.84m0 1.992V5.168C8 5.084 7.932 5 7.845 5h-1.7C6.068 5 6 5.074 6 5.168v1.664c0 .094.068.168.145.168h1.7C7.932 7 8 6.926 8 6.832m-5 0V5.168C3 5.084 2.942 5 2.836 5H1.145C1.068 5 1 5.074 1 5.168v1.664c0 .094.058.168.145.168h1.69A.16.16 0 0 0 3 6.832m0-2.02V3.166C3 3.073 2.942 3 2.836 3H1.145C1.068 3 1 3.063 1 3.167v1.644c0 .095.058.189.145.189h1.69C2.933 5 3 4.906 3 4.812"/></svg>
